X: 2867
T: Barley Lake
R: jig
M: 6/8
K: Ddorian
DEF dcA|fed cAG|FGF EeA|def eAA
DEF dcA|fgf e^c^c|dcA FGF|1 EFE Ddd:|2 EFE D2D||
def dAA|def aAB|cBc dcd|((3efg)f edc
DEF dcA|fgf e^c^c|dcA FGF|1 EFE D2D:|2 EFE Ddd||

